svgs/regular/file-plus-minus.svg

<svg xmlns="http://www.w3.org/2000/svg" viewBox="0 0 384 512"><!-- Font Awesome Pro 6.0.0-alpha2 by @fontawesome - https://fontawesome.com License - https://fontawesome.com/license (Commercial License) --><path d="M365.256 93.383L290.627 18.746C278.625 6.742 262.348 0 245.373 0H64C28.654 0 0 28.652 0 64L0.02 448C0.02 483.344 28.674 512 64.02 512H320C355.199 512 384 483.199 384 448V138.641C384 121.664 377.258 105.383 365.256 93.383ZM336.002 448C336.002 456.836 328.838 464 320.002 464H64.018C55.18 464 48.018 456.836 48.018 448L48 64.125C48 55.289 55.164 48.125 64 48.125H224.008V128C224.008 145.672 238.334 160 256.008 160H336.002V448ZM216 232V192C216 178.75 205.25 168 192 168S168 178.75 168 192V232H128C114.75 232 104 242.75 104 256S114.75 280 128 280H168V320C168 333.25 178.75 344 192 344S216 333.25 216 320V280H256C269.25 280 280 269.25 280 256S269.25 232 256 232H216ZM256 376H128C114.75 376 104 386.75 104 400S114.75 424 128 424H256C269.25 424 280 413.25 280 400S269.25 376 256 376Z"/></svg>

<svg xmlns="http://www.w3.org/2000/svg" viewBox="0 0 384 512"><!--! Font Awesome Pro 6.0.0-alpha3 by @fontawesome - https://fontawesome.com License - https://fontawesome.com/license (Commercial License) --><path d="M365.3 93.38l-74.63-74.64C278.6 6.742 262.3 0 245.4 0H64C28.65 0 0 28.65 0 64l.0065 384c0 35.34 28.65 64 64 64H320c35.2 0 64-28.8 64-64V138.6C384 121.7 377.3 105.4 365.3 93.38zM336 448c0 8.836-7.164 16-16 16H64.02c-8.838 0-16-7.164-16-16L48 64.13c0-8.836 7.164-16 16-16h160L224 128c0 17.67 14.33 32 32 32h79.1V448zM216 232V192c0-13.25-10.75-24-24-24S168 178.8 168 192v40H128C114.8 232 104 242.8 104 256S114.8 280 128 280h40V320c0 13.25 10.75 24 24 24s24-10.75 24-24V280H256c13.25 0 24-10.75 24-24S269.3 232 256 232H216zM256 376H128c-13.25 0-24 10.75-24 24S114.8 424 128 424h128c13.25 0 24-10.75 24-24S269.3 376 256 376z"/></svg>
